; G-Code generated by Simplify3D(R) Version 4.1.2
; Mar 18, 2023 at 8:36:15 PM
; Settings Summary
;   processName,Process1
;   applyToModels,Caffeine_Molecule_Necklace
;   profileName,Troodon 2.0 (modified)
;   profileVersion,2022-11-28 15:48:25
;   baseProfile,Default
;   printMaterial,PLA
;   printQuality,Fast
;   printExtruders,
;   extruderName,Primary Extruder
;   extruderToolheadNumber,0
;   extruderDiameter,0.4
;   extruderAutoWidth,0
;   extruderWidth,0.4
;   extrusionMultiplier,0.97
;   extruderUseRetract,1
;   extruderRetractionDistance,1
;   extruderExtraRestartDistance,0
;   extruderRetractionZLift,0
;   extruderRetractionSpeed,3600
;   extruderUseCoasting,0
;   extruderCoastingDistance,0
;   extruderUseWipe,0
;   extruderWipeDistance,5
;   primaryExtruder,0
;   layerHeight,0.2
;   topSolidLayers,5
;   bottomSolidLayers,4
;   perimeterOutlines,3
;   printPerimetersInsideOut,1
;   startPointOption,3
;   startPointOriginX,150
;   startPointOriginY,350
;   sequentialIslands,0
;   spiralVaseMode,0
;   firstLayerHeightPercentage,120
;   firstLayerWidthPercentage,200
;   firstLayerUnderspeed,0.3
;   useRaft,0
;   raftExtruder,0
;   raftTopLayers,3
;   raftBaseLayers,2
;   raftOffset,3
;   raftSeparationDistance,0.14
;   raftTopInfill,100
;   aboveRaftSpeedMultiplier,0.3
;   useSkirt,1
;   skirtExtruder,0
;   skirtLayers,1
;   skirtOutlines,1
;   skirtOffset,3
;   usePrimePillar,0
;   primePillarExtruder,999
;   primePillarWidth,12
;   primePillarLocation,7
;   primePillarSpeedMultiplier,1
;   useOozeShield,0
;   oozeShieldExtruder,999
;   oozeShieldOffset,2
;   oozeShieldOutlines,1
;   oozeShieldSidewallShape,1
;   oozeShieldSidewallAngle,30
;   oozeShieldSpeedMultiplier,1
;   infillExtruder,0
;   internalInfillPattern,Fast Honeycomb
;   externalInfillPattern,Rectilinear
;   infillPercentage,20
;   outlineOverlapPercentage,20
;   infillExtrusionWidthPercentage,100
;   minInfillLength,2
;   infillLayerInterval,1
;   internalInfillAngles,0
;   overlapInternalInfillAngles,0
;   externalInfillAngles,45,-45
;   generateSupport,0
;   supportExtruder,0
;   supportInfillPercentage,30
;   supportExtraInflation,0.5
;   supportBaseLayers,0
;   denseSupportExtruder,0
;   denseSupportLayers,0
;   denseSupportInfillPercentage,70
;   supportLayerInterval,1
;   supportHorizontalPartOffset,0.35
;   supportUpperSeparationLayers,1
;   supportLowerSeparationLayers,1
;   supportType,0
;   supportGridSpacing,3
;   maxOverhangAngle,30
;   supportAngles,0
;   temperatureName,Primary Extruder,Bed
;   temperatureNumber,0,2
;   temperatureSetpointCount,2,2
;   temperatureSetpointLayers,1,2,1,2
;   temperatureSetpointTemperatures,230,225,65,65
;   temperatureStabilizeAtStartup,1,1
;   temperatureHeatedBed,0,1
;   fanLayers,1,5
;   fanSpeeds,0,100
;   blipFanToFullPower,0
;   adjustSpeedForCooling,1
;   minSpeedLayerTime,15
;   minCoolingSpeedSlowdown,20
;   increaseFanForCooling,1
;   minFanLayerTime,10
;   maxCoolingFanSpeed,100
;   increaseFanForBridging,1
;   bridgingFanSpeed,100
;   use5D,1
;   relativeEdistances,1
;   allowEaxisZeroing,1
;   independentExtruderAxes,0
;   includeM10123,0
;   stickySupport,1
;   applyToolheadOffsets,0
;   gcodeXoffset,0
;   gcodeYoffset,0
;   gcodeZoffset,0
;   overrideMachineDefinition,1
;   machineTypeOverride,0
;   strokeXoverride,355
;   strokeYoverride,366
;   strokeZoverride,320
;   originOffsetXoverride,0
;   originOffsetYoverride,0
;   originOffsetZoverride,0
;   homeXdirOverride,-1
;   homeYdirOverride,-1
;   homeZdirOverride,-1
;   flipXoverride,-1
;   flipYoverride,1
;   flipZoverride,1
;   toolheadOffsets,0,0|0,0|0,0|0,0|0,0|0,0
;   overrideFirmwareConfiguration,1
;   firmwareTypeOverride,RepRap (Marlin/Repetier/Sprinter)
;   GPXconfigOverride,r2
;   baudRateOverride,115200
;   overridePrinterModels,0
;   printerModelsOverride
;   startingGcode,G28,M98 P"Nozzle-clean.g",G32,M98 P"Nozzle-clean.g",M98 P"AutoZ.g",G92 E0,G1 E-10 F1800,G1 X350 Y350 F10000,G92 E0,G1 E10 F540,G92 E0,G1 E-0.30000 F3600,G1 Z0.2500 F1000,G1 X100 Y350 E43.5631 F1000,G92 E0,G1 E-0.30000 F5400,,
;   layerChangeGcode,
;   retractionGcode,
;   toolChangeGcode,
;   endingGcode,G91  ;relative positioning,G1 E-5.00 F1000  ;retract 5mm of filament,G1 Z+1.00 X+20.0 Y+20.0 F20000  ;short quick move to disengage from print,G1 Z+10.00  F20000  ;move Z-Axis 10mm away from part,G90  ;absolute positioning,G28 X0 Y0  ; move gantry close to home,G91  ; relative positioning,G1 E-5.00 F500  ;retract additional filament to prevent oozing,G90 ;absolute positioning,M104 S0  ;turn off hotend,M140 S0  ;turn off heatbed,M106 S0  ; shut off blower,M84  ;motors off
;   exportFileFormat,gcode
;   celebration,0
;   celebrationSong,Star Wars
;   postProcessing,{REPLACE "G1 E-1.0000 F6000\n" "G10\n"} ; firmware retract,{REPLACE "G1 E1.0000 F6000\n" "G11\n"} ; firmware unretract,{REPLACE "G1 E1.0000 F1800\n" "G11\n"} ; firmware skirt unretract,{REPLACE "G1 E3091.6538 F1800" "; Remove -"},,
;   defaultSpeed,5400
;   outlineUnderspeed,0.4
;   solidInfillUnderspeed,0.6
;   supportUnderspeed,0.8
;   rapidXYspeed,18000
;   rapidZspeed,9000
;   minBridgingArea,5
;   bridgingExtraInflation,1
;   bridgingExtrusionMultiplier,0.9
;   bridgingSpeedMultiplier,1.1
;   useFixedBridgingAngle,0
;   fixedBridgingAngle,0
;   applyBridgingToPerimeters,0
;   filamentDiameters,1.75|1.75|1.75|1.75|1.75|1.75
;   filamentPricesPerKg,46|46|46|46|46|46
;   filamentDensities,1.25|1.25|1.25|1.25|1.25|1.25
;   useMinPrintHeight,0
;   minPrintHeight,0
;   useMaxPrintHeight,0
;   maxPrintHeight,0
;   useDiaphragm,0
;   diaphragmLayerInterval,20
;   robustSlicing,1
;   mergeAllIntoSolid,0
;   onlyRetractWhenCrossingOutline,1
;   retractBetweenLayers,1
;   useRetractionMinTravel,0
;   retractionMinTravel,3
;   retractWhileWiping,0
;   onlyWipeOutlines,1
;   avoidCrossingOutline,0
;   maxMovementDetourFactor,50
;   toolChangeRetractionDistance,12
;   toolChangeExtraRestartDistance,-0.5
;   toolChangeRetractionSpeed,600
;   externalThinWallType,0
;   internalThinWallType,2
;   thinWallAllowedOverlapPercentage,10
;   singleExtrusionMinLength,1
;   singleExtrusionMinPrintingWidthPercentage,50
;   singleExtrusionMaxPrintingWidthPercentage,200
;   singleExtrusionEndpointExtension,0.2
;   horizontalSizeCompensation,0
G90
M83
M106 S0
M140 S65
M190 S65
M104 S230 T0
M109 S230 T0
G28
M98 P"Nozzle-clean.g"
G32
M98 P"Nozzle-clean.g"
M98 P"AutoZ.g"
G92 E0
G1 E-10 F1800
G1 X350 Y350 F10000
G92 E0
G1 E10 F540
G92 E0
G1 E-0.30000 F3600
G1 Z0.2500 F1000
G1 X100 Y350 E43.5631 F1000
G92 E0
G1 E-0.30000 F5400
; process Process1
; layer 1, Z = 0.240
T0
G1 E-1.0000 F3600
; feature skirt
; tool H0.240 W0.800
G1 Z0.240 F9000
G1 X171.610 Y227.501 F18000
G1 E1.0000 F3600
G1 X171.429 Y227.460 E0.0144 F1620
G1 X170.857 Y227.300 E0.0460
G1 X170.681 Y227.241 E0.0144
G1 X170.129 Y227.019 E0.0460
G1 X169.961 Y226.941 E0.0144
G1 X169.437 Y226.661 E0.0460
G1 X169.278 Y226.564 E0.0144
G1 X168.788 Y226.229 E0.0460
G1 X168.641 Y226.116 E0.0144
G1 X168.190 Y225.729 E0.0460
G1 X168.056 Y225.601 E0.0143
G1 X167.649 Y225.167 E0.0460
G1 X167.530 Y225.025 E0.0144
G1 X167.173 Y224.549 E0.0460
G1 X167.070 Y224.395 E0.0144
G1 X166.768 Y223.884 E0.0460
G1 X166.682 Y223.719 E0.0144
G1 X166.437 Y223.178 E0.0460
G1 X166.369 Y223.005 E0.0144
G1 X166.185 Y222.440 E0.0460
G1 X166.137 Y222.261 E0.0143
G1 X166.014 Y221.680 E0.0460
G1 X165.986 Y221.496 E0.0144
G1 X165.928 Y220.904 E0.0460
G1 X165.920 Y220.719 E0.0144
G1 X165.926 Y220.125 E0.0460
G1 X165.938 Y219.940 E0.0143
G1 X166.009 Y219.350 E0.0460
G1 X166.042 Y219.167 E0.0144
G1 X166.177 Y218.588 E0.0460
G1 X166.228 Y218.410 E0.0144
G1 X166.426 Y217.849 E0.0460
G1 X166.497 Y217.678 E0.0144
G1 X166.754 Y217.142 E0.0460
G1 X166.843 Y216.980 E0.0144
G1 X167.157 Y216.475 E0.0460
G1 X167.263 Y216.323 E0.0144
G1 X167.630 Y215.855 E0.0460
G1 X167.752 Y215.716 E0.0144
G1 X167.792 Y215.676 E0.0044
G1 X167.792 Y205.491 E0.7886
G1 X167.742 Y205.440 E0.0055
G1 X167.619 Y205.299 E0.0145
G1 X167.251 Y204.827 E0.0463
G1 X167.144 Y204.674 E0.0145
G1 X166.830 Y204.165 E0.0463
G1 X166.741 Y204.001 E0.0145
G1 X166.484 Y203.460 E0.0463
G1 X166.413 Y203.287 E0.0145
G1 X166.218 Y202.721 E0.0463
G1 X166.166 Y202.542 E0.0145
G1 X166.034 Y201.958 E0.0463
G1 X166.002 Y201.774 E0.0145
G1 X165.981 Y201.585 E0.0148
G1 X160.518 Y198.431 E0.4885
G1 X160.441 Y198.465 E0.0065
G1 X160.273 Y198.531 E0.0140
G1 X159.725 Y198.711 E0.0447
G1 X159.551 Y198.758 E0.0139
G1 X158.987 Y198.879 E0.0447
G1 X158.809 Y198.908 E0.0139
G1 X158.235 Y198.969 E0.0447
G1 X158.055 Y198.978 E0.0140
G1 X157.478 Y198.978 E0.0447
G1 X157.298 Y198.969 E0.0140
G1 X156.724 Y198.908 E0.0447
G1 X156.546 Y198.879 E0.0140
G1 X155.982 Y198.758 E0.0447
G1 X155.808 Y198.711 E0.0139
G1 X155.260 Y198.531 E0.0447
G1 X155.092 Y198.465 E0.0140
G1 X155.015 Y198.431 E0.0065
G1 X147.676 Y202.668 E0.6561
G1 X147.650 Y202.892 E0.0175
G1 X147.617 Y203.078 E0.0146
G1 X147.480 Y203.667 E0.0469
G1 X147.427 Y203.848 E0.0146
G1 X147.225 Y204.419 E0.0469
G1 X147.152 Y204.594 E0.0146
G1 X146.888 Y205.138 E0.0469
G1 X146.796 Y205.303 E0.0146
G1 X146.473 Y205.815 E0.0469
G1 X146.364 Y205.969 E0.0146
G1 X145.986 Y206.443 E0.0469
G1 X145.860 Y206.584 E0.0146
G1 X145.433 Y207.012 E0.0469
G1 X145.292 Y207.138 E0.0146
G1 X144.819 Y207.517 E0.0469
G1 X144.666 Y207.626 E0.0146
G1 X144.154 Y207.950 E0.0469
G1 X143.989 Y208.042 E0.0146
G1 X143.444 Y208.307 E0.0469
G1 X143.270 Y208.380 E0.0146
G1 X142.700 Y208.583 E0.0469
G1 X142.518 Y208.636 E0.0146
G1 X141.929 Y208.774 E0.0469
G1 X141.743 Y208.807 E0.0146
G1 X141.142 Y208.879 E0.0469
G1 X140.953 Y208.891 E0.0146
G1 X140.348 Y208.897 E0.0469
G1 X140.159 Y208.888 E0.0146
G1 X139.557 Y208.825 E0.0469
G1 X139.371 Y208.796 E0.0146
G1 X138.779 Y208.667 E0.0469
G1 X138.597 Y208.617 E0.0146
G1 X138.023 Y208.424 E0.0469
G1 X137.848 Y208.353 E0.0146
G1 X137.299 Y208.098 E0.0469
G1 X137.132 Y208.009 E0.0146
G1 X136.615 Y207.694 E0.0469
G1 X136.460 Y207.586 E0.0146
G1 X135.981 Y207.216 E0.0469
G1 X135.838 Y207.092 E0.0146
G1 X135.403 Y206.671 E0.0469
G1 X135.275 Y206.532 E0.0146
G1 X134.889 Y206.066 E0.0469
G1 X134.777 Y205.914 E0.0146
G1 X134.446 Y205.407 E0.0469
G1 X134.352 Y205.243 E0.0146
G1 X134.079 Y204.703 E0.0469
G1 X134.003 Y204.530 E0.0146
G1 X133.791 Y203.963 E0.0469
G1 X133.735 Y203.782 E0.0146
G1 X133.588 Y203.195 E0.0469
G1 X133.552 Y203.009 E0.0146
G1 X133.471 Y202.410 E0.0469
G1 X133.456 Y202.221 E0.0146
G1 X133.442 Y201.616 E0.0469
G1 X133.448 Y201.427 E0.0146
G1 X133.501 Y200.824 E0.0469
G1 X133.527 Y200.637 E0.0146
G1 X133.647 Y200.044 E0.0469
G1 X133.694 Y199.861 E0.0146
G1 X133.879 Y199.284 E0.0469
G1 X133.946 Y199.108 E0.0146
G1 X134.194 Y198.555 E0.0469
G1 X134.280 Y198.387 E0.0146
G1 X134.588 Y197.865 E0.0469
G1 X134.692 Y197.708 E0.0146
G1 X135.055 Y197.224 E0.0469
G1 X135.177 Y197.079 E0.0146
G1 X135.591 Y196.638 E0.0469
G1 X135.728 Y196.507 E0.0146
G1 X136.189 Y196.115 E0.0469
G1 X136.339 Y196.001 E0.0146
G1 X136.841 Y195.662 E0.0469
G1 X137.003 Y195.565 E0.0146
G1 X137.539 Y195.283 E0.0469
G1 X137.711 Y195.205 E0.0146
G1 X138.275 Y194.985 E0.0469
G1 X138.455 Y194.926 E0.0146
G1 X139.040 Y194.770 E0.0469
G1 X139.225 Y194.731 E0.0146
G1 X139.823 Y194.641 E0.0469
G1 X140.011 Y194.623 E0.0146
G1 X140.616 Y194.599 E0.0469
G1 X140.805 Y194.603 E0.0146
G1 X141.409 Y194.646 E0.0469
G1 X141.596 Y194.670 E0.0146
G1 X142.191 Y194.781 E0.0469
G1 X142.375 Y194.826 E0.0146
G1 X142.955 Y195.001 E0.0469
G1 X143.132 Y195.066 E0.0146
G1 X143.339 Y195.155 E0.0174
G1 X150.678 Y190.918 E0.6561
G1 X150.686 Y190.834 E0.0065
G1 X150.713 Y190.656 E0.0140
G1 X150.831 Y190.091 E0.0447
G1 X150.877 Y189.917 E0.0139
G1 X151.054 Y189.368 E0.0447
G1 X151.119 Y189.199 E0.0140
G1 X151.353 Y188.672 E0.0447
G1 X151.435 Y188.511 E0.0139
G1 X151.723 Y188.011 E0.0447
G1 X151.821 Y187.860 E0.0139
G1 X152.161 Y187.394 E0.0447
G1 X152.275 Y187.254 E0.0139
G1 X152.662 Y186.826 E0.0447
G1 X152.790 Y186.699 E0.0140
G1 X153.220 Y186.314 E0.0447
G1 X153.361 Y186.202 E0.0139
G1 X153.429 Y186.153 E0.0065
G1 X153.429 Y179.844 E0.4885
G1 X153.276 Y179.731 E0.0148
G1 X153.132 Y179.612 E0.0145
G1 X152.693 Y179.205 E0.0463
G1 X152.563 Y179.071 E0.0145
G1 X152.171 Y178.619 E0.0463
G1 X152.057 Y178.471 E0.0145
G1 X151.717 Y177.978 E0.0463
G1 X151.619 Y177.819 E0.0145
G1 X151.335 Y177.292 E0.0463
G1 X151.256 Y177.123 E0.0144
G1 X151.031 Y176.569 E0.0463
G1 X150.971 Y176.391 E0.0145
G1 X150.951 Y176.323 E0.0055
G1 X142.131 Y171.231 E0.7886
G1 X142.077 Y171.245 E0.0044
G1 X141.895 Y171.281 E0.0144
G1 X141.307 Y171.365 E0.0460
G1 X141.122 Y171.381 E0.0144
G1 X140.528 Y171.400 E0.0460
G1 X140.342 Y171.396 E0.0144
G1 X139.750 Y171.351 E0.0460
G1 X139.566 Y171.327 E0.0143
G1 X138.982 Y171.217 E0.0460
G1 X138.801 Y171.173 E0.0144
G1 X138.233 Y171.000 E0.0460
G1 X138.058 Y170.937 E0.0143
G1 X137.512 Y170.704 E0.0460
G1 X137.345 Y170.622 E0.0144
G1 X136.827 Y170.330 E0.0460
G1 X136.671 Y170.230 E0.0144
G1 X136.188 Y169.884 E0.0460
G1 X136.043 Y169.768 E0.0144
G1 X135.601 Y169.371 E0.0460
G1 X135.470 Y169.240 E0.0144
G1 X135.073 Y168.798 E0.0460
G1 X134.957 Y168.653 E0.0144
G1 X134.611 Y168.170 E0.0460
G1 X134.511 Y168.014 E0.0144
G1 X134.219 Y167.496 E0.0460
G1 X134.137 Y167.329 E0.0144
G1 X133.904 Y166.782 E0.0460
G1 X133.840 Y166.608 E0.0144
G1 X133.668 Y166.039 E0.0460
G1 X133.624 Y165.859 E0.0144
G1 X133.514 Y165.275 E0.0460
G1 X133.490 Y165.091 E0.0143
G1 X133.445 Y164.499 E0.0460
G1 X133.441 Y164.313 E0.0144
G1 X133.460 Y163.719 E0.0460
G1 X133.476 Y163.534 E0.0144
G1 X133.560 Y162.946 E0.0460
G1 X133.596 Y162.764 E0.0144
G1 X133.744 Y162.188 E0.0460
G1 X133.800 Y162.011 E0.0144
G1 X134.009 Y161.455 E0.0460
G1 X134.084 Y161.286 E0.0144
G1 X134.352 Y160.755 E0.0460
G1 X134.445 Y160.595 E0.0144
G1 X134.770 Y160.097 E0.0460
G1 X134.880 Y159.947 E0.0144
G1 X135.257 Y159.488 E0.0460
G1 X135.382 Y159.351 E0.0144
G1 X135.807 Y158.935 E0.0460
G1 X135.946 Y158.813 E0.0144
G1 X136.414 Y158.446 E0.0460
G1 X136.566 Y158.340 E0.0144
G1 X137.071 Y158.026 E0.0460
G1 X137.233 Y157.937 E0.0144
G1 X137.769 Y157.680 E0.0460
G1 X137.940 Y157.609 E0.0144
G1 X138.501 Y157.412 E0.0460
G1 X138.679 Y157.360 E0.0144
G1 X139.258 Y157.225 E0.0460
G1 X139.441 Y157.193 E0.0144
G1 X140.031 Y157.121 E0.0460
G1 X140.216 Y157.109 E0.0144
G1 X140.810 Y157.103 E0.0460
G1 X140.995 Y157.111 E0.0144
G1 X141.587 Y157.169 E0.0460
G1 X141.770 Y157.197 E0.0144
G1 X142.352 Y157.320 E0.0460
G1 X142.531 Y157.368 E0.0144
G1 X143.096 Y157.553 E0.0460
G1 X143.269 Y157.620 E0.0144
G1 X143.810 Y157.865 E0.0460
G1 X143.975 Y157.951 E0.0144
G1 X144.486 Y158.253 E0.0460
G1 X144.640 Y158.357 E0.0144
G1 X145.116 Y158.713 E0.0460
G1 X145.258 Y158.832 E0.0144
G1 X145.692 Y159.239 E0.0460
G1 X145.820 Y159.373 E0.0144
G1 X146.207 Y159.824 E0.0460
G1 X146.320 Y159.971 E0.0144
G1 X146.655 Y160.461 E0.0460
G1 X146.752 Y160.620 E0.0144
G1 X147.032 Y161.144 E0.0460
G1 X147.110 Y161.312 E0.0144
G1 X147.332 Y161.864 E0.0460
G1 X147.391 Y162.040 E0.0144
G1 X147.407 Y162.094 E0.0044
G1 X156.226 Y167.186 E0.7886
G1 X156.296 Y167.169 E0.0055
G1 X156.479 Y167.132 E0.0145
G1 X157.072 Y167.049 E0.0463
G1 X157.258 Y167.034 E0.0145
G1 X157.856 Y167.016 E0.0463
G1 X158.043 Y167.021 E0.0145
G1 X158.640 Y167.069 E0.0463
G1 X158.825 Y167.094 E0.0145
G1 X159.412 Y167.208 E0.0463
G1 X159.593 Y167.253 E0.0145
G1 X160.165 Y167.430 E0.0463
G1 X160.340 Y167.495 E0.0145
G1 X160.515 Y167.571 E0.0148
G1 X165.978 Y164.417 E0.4885
G1 X165.987 Y164.333 E0.0065
G1 X166.014 Y164.155 E0.0139
G1 X166.132 Y163.590 E0.0447
G1 X166.178 Y163.416 E0.0139
G1 X166.355 Y162.867 E0.0447
G1 X166.419 Y162.698 E0.0139
G1 X166.653 Y162.171 E0.0447
G1 X166.735 Y162.010 E0.0139
G1 X167.024 Y161.510 E0.0447
G1 X167.122 Y161.359 E0.0140
G1 X167.462 Y160.892 E0.0447
G1 X167.575 Y160.753 E0.0139
G1 X167.963 Y160.325 E0.0447
G1 X168.090 Y160.198 E0.0139
G1 X168.521 Y159.813 E0.0447
G1 X168.661 Y159.700 E0.0140
G1 X168.729 Y159.651 E0.0065
G1 X168.729 Y151.177 E0.6561
G1 X168.549 Y151.043 E0.0174
G1 X168.404 Y150.921 E0.0146
G1 X167.962 Y150.507 E0.0469
