;FLAVOR:Marlin
;TIME:247
;Filament used: 0.0582561m
;Layer height: 0.15
;MINX:153.971
;MINY:165.209
;MINZ:0.3
;MAXX:196.029
;MAXY:184.791
;MAXZ:10.95
;Generated with Cura_SteamEngine 5.3.0
M140 S65
M105
M190 S65
M104 S220
M105
M109 S220
M82 ;absolute extrusion mode
G28 ;Home
G1 Z15.0 F6000 ;Move the platform down 15mm
;Prime the extruder
G92 E0
G1 F200 E3
G92 E0
G92 E0
G92 E0
G1 F1500 E-1
;LAYER_COUNT:72
;LAYER:0
M107
G0 F3600 X157.798 Y169.131 Z0.3
;TYPE:SKIRT
G1 F1500 E0
G1 F3600 X158.322 Y168.666 E0.02372
G1 X159.057 Y168.1 E0.05513
G1 X159.517 Y167.808 E0.07358
G1 X160.287 Y167.411 E0.10291
G1 X161.036 Y167.11 E0.13024
G1 X161.585 Y166.943 E0.14967
G1 X162.512 Y166.746 E0.18176
G1 X163.137 Y166.68 E0.20304
G1 X164.099 Y166.653 E0.23563
G1 X167.126 Y166.942 E0.33858
G1 X169.793 Y167.12 E0.42909
G1 X172.572 Y167.228 E0.52325
G1 X175.315 Y167.256 E0.61613
G1 X178.023 Y167.207 E0.70784
G1 X180.725 Y167.082 E0.79942
G1 X184.346 Y166.797 E0.9224
G1 X185.497 Y166.684 E0.96156
G1 X186.634 Y166.652 E1.00008
G1 X187.563 Y166.761 E1.03175
G1 X188.562 Y166.97 E1.0663
G1 X189.653 Y167.373 E1.10568
G1 X190.296 Y167.7 E1.13011
G1 X190.731 Y167.965 E1.14736
G1 X191.535 Y168.544 E1.1809
G1 X192.12 Y169.05 E1.20709
G1 X192.584 Y169.572 E1.23074
G1 X193.166 Y170.331 E1.26312
G1 X193.441 Y170.765 E1.28052
G1 X193.839 Y171.537 E1.30993
G1 X194.13 Y172.261 E1.33635
G1 X194.283 Y172.747 E1.3536
G1 X194.483 Y173.598 E1.3832
G1 X194.588 Y174.5 E1.41395
G1 X194.583 Y175.527 E1.44872
G1 X194.521 Y176.086 E1.46776
G1 X194.353 Y176.999 E1.4992
G1 X194.189 Y177.572 E1.51938
G1 X193.901 Y178.357 E1.54769
G1 X193.55 Y179.046 E1.57387
G1 X193.289 Y179.475 E1.59087
G1 X192.728 Y180.26 E1.62354
G1 X192.2 Y180.87 E1.65086
G1 X191.678 Y181.334 E1.6745
G1 X190.941 Y181.902 E1.70601
G1 X190.486 Y182.19 E1.72424
G1 X189.713 Y182.589 E1.7537
G1 X188.964 Y182.89 E1.78103
G1 X188.415 Y183.057 E1.80046
G1 X187.488 Y183.254 E1.83255
G1 X186.863 Y183.32 E1.85383
G1 X185.901 Y183.347 E1.88641
G1 X182.874 Y183.058 E1.98937
G1 X180.207 Y182.88 E2.07987
G1 X177.428 Y182.772 E2.17404
G1 X174.685 Y182.744 E2.26692
G1 X171.977 Y182.793 E2.35862
G1 X169.275 Y182.918 E2.45021
G1 X165.654 Y183.203 E2.57319
G1 X164.503 Y183.316 E2.61235
G1 X163.366 Y183.348 E2.65086
G1 X162.437 Y183.239 E2.68253
G1 X161.443 Y183.031 E2.71692
G1 X160.34 Y182.624 E2.75672
G1 X159.704 Y182.3 E2.78089
G1 X159.268 Y182.035 E2.79817
G1 X158.483 Y181.471 E2.8309
G1 X157.88 Y180.95 E2.85788
G1 X157.413 Y180.425 E2.88167
G1 X156.85 Y179.693 E2.91294
G1 X156.558 Y179.233 E2.93138
G1 X156.161 Y178.463 E2.96072
G1 X155.87 Y177.739 E2.98714
G1 X155.717 Y177.253 E3.00439
G1 X155.517 Y176.402 E3.03399
G1 X155.412 Y175.5 E3.06473
G1 X155.417 Y174.473 E3.09951
G1 X155.479 Y173.912 E3.11862
G1 X155.572 Y173.404 E3.1361
G1 X155.737 Y172.626 E3.16303
G1 X156.098 Y171.645 E3.19843
G1 X156.45 Y170.954 E3.22468
G1 X156.715 Y170.518 E3.24196
G1 X157.276 Y169.736 E3.27455
G1 X157.798 Y169.131 E3.3016
G0 X157.287 Y168.621
G1 X157.844 Y168.127 E3.32681
G1 X158.671 Y167.492 E3.36211
G1 X159.131 Y167.2 E3.38056
G1 X159.957 Y166.771 E3.41208
G1 X160.826 Y166.421 E3.4438
G1 X161.375 Y166.254 E3.46323
G1 X162.436 Y166.03 E3.49994
G1 X163.117 Y165.96 E3.52312
G1 X164.123 Y165.932 E3.5572
G1 X167.194 Y166.225 E3.66165
G1 X169.833 Y166.401 E3.7512
G1 X172.579 Y166.508 E3.84425
G1 X175.309 Y166.536 E3.93669
G1 X178.01 Y166.487 E4.02816
G1 X180.669 Y166.364 E4.11829
G1 X184.276 Y166.08 E4.24079
G1 X185.427 Y165.967 E4.27995
G1 X186.664 Y165.931 E4.32185
G1 X187.71 Y166.056 E4.35752
G1 X188.758 Y166.275 E4.39377
G1 X189.979 Y166.731 E4.4379
G1 X190.671 Y167.085 E4.46422
G1 X191.106 Y167.35 E4.48147
G1 X192.006 Y167.999 E4.51904
G1 X192.624 Y168.534 E4.54671
G1 X193.155 Y169.134 E4.57384
G1 X193.774 Y169.946 E4.60841
G1 X194.081 Y170.435 E4.62796
G1 X194.507 Y171.268 E4.65964
G1 X194.817 Y172.045 E4.68797
G1 X194.984 Y172.582 E4.70701
G1 X195.184 Y173.433 E4.73661
G1 X195.308 Y174.461 E4.77167
G1 X195.299 Y175.606 E4.81044
G1 X195.237 Y176.165 E4.82948
G1 X195.045 Y177.197 E4.86502
G1 X194.865 Y177.82 E4.88698
G1 X194.543 Y178.684 E4.9182
G1 X194.192 Y179.373 E4.94438
G1 X193.875 Y179.894 E4.96503
G1 X193.314 Y180.679 E4.9977
G1 X192.713 Y181.377 E5.02889
G1 X192.118 Y181.904 E5.0558
G1 X191.381 Y182.472 E5.0873
G1 X190.816 Y182.83 E5.10995
G1 X190.043 Y183.229 E5.1394
G1 X189.174 Y183.579 E5.17112
G1 X188.625 Y183.746 E5.19055
G1 X187.564 Y183.97 E5.22727
G1 X186.883 Y184.04 E5.25045
G1 X185.877 Y184.068 E5.28453
G1 X182.806 Y183.775 E5.38898
G1 X180.167 Y183.599 E5.47853
G1 X177.421 Y183.492 E5.57158
G1 X174.691 Y183.464 E5.66402
G1 X171.99 Y183.513 E5.75549
G1 X169.331 Y183.636 E5.84561
G1 X165.724 Y183.92 E5.96812
G1 X164.573 Y184.033 E6.00728
G1 X163.336 Y184.069 E6.04918
G1 X162.29 Y183.944 E6.08485
G1 X161.247 Y183.726 E6.12093
G1 X160.013 Y183.266 E6.16552
G1 X159.377 Y182.942 E6.18969
G1 X158.848 Y182.62 E6.21066
G1 X158.012 Y182.016 E6.24558
G1 X157.373 Y181.464 E6.27417
G1 X156.875 Y180.904 E6.29954
G1 X156.279 Y180.132 E6.33256
G1 X155.95 Y179.619 E6.3532
G1 X155.493 Y178.732 E6.38698
G1 X155.183 Y177.955 E6.41531
G1 X155.016 Y177.418 E6.43435
G1 X154.816 Y176.567 E6.46395
G1 X154.692 Y175.539 E6.49901
G1 X154.701 Y174.394 E6.53778
G1 X154.763 Y173.833 E6.55689
G1 X154.868 Y173.255 E6.57678
G1 X155.045 Y172.419 E6.60571
G1 X155.456 Y171.318 E6.6455
G1 X155.808 Y170.627 E6.67176
G1 X156.13 Y170.098 E6.69273
G1 X156.691 Y169.316 E6.72532
G1 X157.287 Y168.621 E6.75632
G0 X156.772 Y168.115
G1 X157.366 Y167.588 E6.7832
G1 X158.285 Y166.884 E6.8224
G1 X158.799 Y166.561 E6.84295
G1 X159.688 Y166.103 E6.87682
G1 X160.616 Y165.732 E6.91065
G1 X161.165 Y165.565 E6.93008
G1 X162.362 Y165.314 E6.97149
G1 X163.097 Y165.24 E6.99651
G1 X164.147 Y165.211 E7.03207
G1 X167.262 Y165.508 E7.13802
G1 X169.873 Y165.682 E7.22662
G1 X172.586 Y165.788 E7.31855
G1 X175.303 Y165.816 E7.41055
G1 X177.997 Y165.767 E7.50178
G1 X180.612 Y165.646 E7.59042
G1 X184.205 Y165.363 E7.71245
G1 X185.406 Y165.247 E7.75331
G1 X186.695 Y165.209 E7.79697
G1 X187.857 Y165.351 E7.83661
G1 X188.956 Y165.581 E7.87462
G1 X190.307 Y166.09 E7.92351
G1 X191.046 Y166.47 E7.95164
G1 X191.481 Y166.735 E7.96889
G1 X192.427 Y167.415 E8.00834
G1 X193.132 Y168.022 E8.03983
G1 X193.728 Y168.698 E8.07035
G1 X194.384 Y169.563 E8.10711
G1 X194.691 Y170.052 E8.12666
G1 X195.176 Y171.001 E8.16274
G1 X195.505 Y171.831 E8.19297
G1 X195.672 Y172.368 E8.21201
G1 X195.885 Y173.268 E8.24333
G1 X196.029 Y174.419 E8.2826
G1 X196.015 Y175.685 E8.32547
G1 X195.945 Y176.297 E8.34633
G1 X195.737 Y177.397 E8.38423
G1 X195.557 Y178.02 E8.40619
G1 X195.185 Y179.011 E8.44203
G1 X194.834 Y179.7 E8.46821
G1 X194.461 Y180.313 E8.49251
G1 X193.86 Y181.149 E8.52737
G1 X193.23 Y181.881 E8.56007
G1 X192.558 Y182.474 E8.59042
G1 X191.821 Y183.042 E8.62192
G1 X191.146 Y183.47 E8.64898
G1 X190.312 Y183.897 E8.68071
G1 X189.384 Y184.268 E8.71455
G1 X188.835 Y184.435 E8.73398
G1 X187.638 Y184.686 E8.77539
G1 X186.903 Y184.76 E8.8004
G1 X185.853 Y184.789 E8.83596
G1 X182.738 Y184.492 E8.94191
G1 X180.127 Y184.318 E9.03052
G1 X177.414 Y184.212 E9.12244
G1 X174.697 Y184.184 E9.21444
G1 X172.003 Y184.233 E9.30568
G1 X169.388 Y184.354 E9.39431
G1 X165.794 Y184.637 E9.51638
G1 X164.643 Y184.75 E9.55554
G1 X163.305 Y184.791 E9.60086
G1 X162.143 Y184.649 E9.6405
G1 X161.045 Y184.42 E9.67848
G1 X159.686 Y183.908 E9.72765
G1 X159.05 Y183.584 E9.75181
G1 X158.426 Y183.204 E9.77655
G1 X157.59 Y182.6 E9.81147
G1 X156.87 Y181.982 E9.8436
G1 X156.305 Y181.344 E9.87246
G1 X155.673 Y180.521 E9.90759
G1 X155.31 Y179.949 E9.93053
G1 X154.824 Y178.999 E9.96666
G1 X154.495 Y178.169 E9.99689
G1 X154.328 Y177.632 E10.01593
G1 X154.115 Y176.732 E10.04725
G1 X153.971 Y175.581 E10.08652
G1 X153.985 Y174.315 E10.12939
G1 X154.047 Y173.754 E10.1485
G1 X154.164 Y173.106 E10.17079
G1 X154.353 Y172.212 E10.20173
G1 X154.781 Y171.066 E10.24315
G1 X155.166 Y170.3 E10.27218
G1 X155.545 Y169.678 E10.29684
G1 X156.144 Y168.847 E10.33153
G1 X156.772 Y168.115 E10.36418
G1 F1500 E9.36418
;MESH:Retraction_tower_test_002.stl
G0 F3600 X161.278 Y169.905
G0 X161.788 Y170.862
G0 X168.286 Y174.182
G0 X181.823 Y175.35
G0 X181.823 Y175.659
;TYPE:WALL-INNER
G1 F1500 E10.36418
G1 F3600 X182.061 Y175.939 E10.37248
G1 X182.389 Y176.841 E10.39414
G1 X182.573 Y177.187 E10.40299
G1 X182.953 Y177.726 E10.41788
G1 X183.214 Y178.016 E10.42668
G1 X183.688 Y178.425 E10.44082
G1 X184.434 Y178.871 E10.46043
G1 X185.013 Y179.095 E10.47445
G1 X185.407 Y179.193 E10.48361
G1 X186.012 Y179.27 E10.49738
G1 X186.663 Y179.257 E10.51208
G1 X187.498 Y179.091 E10.53129
G1 X188.083 Y178.866 E10.54544
G1 X188.436 Y178.677 E10.55448
G1 X189.133 Y178.16 E10.57407
G1 X189.412 Y177.881 E10.58298
G1 X189.928 Y177.184 E10.60255
G1 X190.115 Y176.832 E10.61155
G1 X190.341 Y176.247 E10.6257
G1 X190.507 Y175.412 E10.64492
G1 X190.522 Y174.778 E10.65924
G1 X190.482 Y174.376 E10.66836
G1 X190.342 Y173.753 E10.68277
G1 X190.116 Y173.167 E10.69695
G1 X189.925 Y172.81 E10.70609
G1 X189.412 Y172.119 E10.72551
G1 X189.131 Y171.838 E10.73448
G1 X188.436 Y171.323 E10.75401
G1 X188.083 Y171.134 E10.76305
G1 X187.488 Y170.905 E10.77744
G1 X187.093 Y170.806 E10.78663
G1 X186.488 Y170.73 E10.80039
G1 X185.837 Y170.743 E10.81509
G1 X185.002 Y170.909 E10.83431
G1 X184.417 Y171.134 E10.84846
G1 X184.064 Y171.323 E10.85749
G1 X183.369 Y171.838 E10.87702
G1 X183.088 Y172.119 E10.88599
G1 X182.576 Y172.81 E10.9054
G1 X182.388 Y173.16 E10.91437
G1 X182.061 Y174.061 E10.93601
G1 X181.823 Y174.341 E10.9443
G1 X181.411 Y174.47 E10.95405
G1 X168.526 Y174.468 E11.2449
G1 X168.177 Y174.342 E11.25327
G1 X167.939 Y174.061 E11.26158
G1 X167.611 Y173.16 E11.28323
G1 X167.427 Y172.813 E11.29209
G1 X167.047 Y172.275 E11.30696
G1 X166.785 Y171.984 E11.3158
G1 X166.312 Y171.575 E11.32991
G1 X165.566 Y171.129 E11.34953
G1 X164.987 Y170.905 E11.36355
G1 X164.593 Y170.807 E11.37271
G1 X163.988 Y170.73 E11.38648
G1 X163.337 Y170.743 E11.40118
G1 X162.502 Y170.909 E11.42039
G1 X161.917 Y171.134 E11.43454
G1 X161.564 Y171.323 E11.44358
G1 X160.869 Y171.838 E11.46311
G1 X160.588 Y172.119 E11.47208
G1 X160.075 Y172.81 E11.4915
G1 X159.884 Y173.167 E11.50064
G1 X159.66 Y173.749 E11.51472
G1 X159.493 Y174.588 E11.53403
G1 X159.477 Y175.223 E11.54837
G1 X159.516 Y175.612 E11.55719
G1 X159.658 Y176.243 E11.57179
G1 X159.885 Y176.833 E11.58606
G1 X160.072 Y177.184 E11.59504
G1 X160.588 Y177.881 E11.61461
G1 X160.867 Y178.16 E11.62352
G1 X161.564 Y178.677 E11.64311
G1 X161.917 Y178.865 E11.65214
G1 X162.512 Y179.095 E11.66654
G1 X162.907 Y179.193 E11.67572
G1 X163.512 Y179.27 E11.68949
G1 X164.163 Y179.257 E11.70419
G1 X164.998 Y179.091 E11.7234
G1 X165.583 Y178.866 E11.73755
G1 X165.936 Y178.677 E11.74659
G1 X166.633 Y178.16 E11.76618
G1 X166.912 Y177.881 E11.77508
G1 X167.428 Y177.184 E11.79466
G1 X167.611 Y176.84 E11.80346
G1 X167.939 Y175.939 E11.8251
G1 X168.177 Y175.658 E11.83341
G1 X168.526 Y175.532 E11.84179
G1 X181.411 Y175.53 E12.13264
G1 X181.823 Y175.659 E12.14238
G0 X181.549 Y176.053
;TYPE:WALL-OUTER
G1 X181.628 Y176.146 E12.14514
G1 X181.949 Y177.035 E12.16647
G1 X182.163 Y177.439 E12.17679
G1 X182.577 Y178.026 E12.193
G1 X182.878 Y178.36 E12.20315
G1 X183.406 Y178.815 E12.21889
G1 X184.222 Y179.304 E12.24036
G1 X184.867 Y179.553 E12.25597
G1 X185.318 Y179.666 E12.26646
G1 X185.986 Y179.751 E12.28166
G1 X186.715 Y179.736 E12.29812
G1 X187.632 Y179.554 E12.31922
G1 X188.283 Y179.303 E12.33497
G1 X188.694 Y179.083 E12.3455
G1 X189.447 Y178.524 E12.36666
G1 X189.776 Y178.195 E12.37717
G1 X190.335 Y177.441 E12.39835
G1 X190.553 Y177.032 E12.40882
G1 X190.804 Y176.381 E12.42457
G1 X190.986 Y175.465 E12.44565
G1 X191.003 Y174.76 E12.46156
G1 X190.957 Y174.299 E12.47202
G1 X190.802 Y173.613 E12.4879
G1 X190.553 Y172.967 E12.50353
G1 X190.331 Y172.552 E12.51415
G1 X189.776 Y171.805 E12.53516
G1 X189.445 Y171.474 E12.54572
G1 X188.694 Y170.917 E12.56683
G1 X188.283 Y170.697 E12.57735
G1 X187.633 Y170.447 E12.59307
G1 X187.182 Y170.334 E12.60357
G1 X186.514 Y170.249 E12.61877
G1 X185.785 Y170.264 E12.63522
G1 X184.868 Y170.446 E12.65633
G1 X184.217 Y170.697 E12.67208
G1 X183.806 Y170.917 E12.6826
G1 X183.055 Y171.474 E12.7037
G1 X182.724 Y171.805 E12.71427
G1 X182.169 Y172.552 E12.73528
G1 X181.948 Y172.965 E12.74585
G1 X181.628 Y173.854 E12.76718
G1 X181.549 Y173.947 E12.76993
G1 X181.411 Y173.99 E12.7732
G1 X168.568 Y173.99 E13.0631
G1 X168.451 Y173.948 E13.0659
G1 X168.372 Y173.854 E13.06867
G1 X168.051 Y172.965 E13.09001
G1 X167.837 Y172.561 E13.10033
G1 X167.423 Y171.975 E13.11652
G1 X167.122 Y171.64 E13.12669
G1 X166.594 Y171.185 E13.14242
G1 X165.778 Y170.696 E13.1639
G1 X165.133 Y170.447 E13.1795
G1 X164.682 Y170.334 E13.19
G1 X164.014 Y170.249 E13.2052
G1 X163.285 Y170.264 E13.22166
G1 X162.368 Y170.446 E13.24276
G1 X161.717 Y170.697 E13.25851
G1 X161.306 Y170.917 E13.26903
G1 X160.555 Y171.474 E13.29014
G1 X160.224 Y171.805 E13.3007
G1 X159.669 Y172.552 E13.32171
G1 X159.447 Y172.967 E13.33233
G1 X159.197 Y173.615 E13.34801
G1 X159.014 Y174.535 E13.36919
G1 X158.997 Y175.241 E13.38513
G1 X159.041 Y175.689 E13.39529
G1 X159.198 Y176.383 E13.41135
G1 X159.447 Y177.033 E13.42706
G1 X159.665 Y177.441 E13.4375
G1 X160.224 Y178.195 E13.45869
G1 X160.553 Y178.524 E13.46919
G1 X161.306 Y179.083 E13.49036
G1 X161.717 Y179.303 E13.50089
G1 X162.367 Y179.553 E13.51661
G1 X162.818 Y179.666 E13.5271
G1 X163.486 Y179.751 E13.5423
G1 X164.215 Y179.736 E13.55876
G1 X165.132 Y179.554 E13.57986
G1 X165.783 Y179.303 E13.59561
G1 X166.194 Y179.083 E13.60613
G1 X166.947 Y178.524 E13.6273
G1 X167.276 Y178.195 E13.63781
G1 X167.835 Y177.441 E13.65899
G1 X168.051 Y177.035 E13.66937
G1 X168.372 Y176.146 E13.69071
G1 X168.451 Y176.052 E13.69348
G1 X168.568 Y176.01 E13.69629
G1 X181.411 Y176.01 E13.98619
G1 X181.549 Y176.053 E13.98945
G0 X181.628 Y176.146
G0 X181.654 Y176.219
G0 X182.275 Y175.997
G0 X181.994 Y175.418
G0 X168.006 Y175.418
G0 X167.564 Y175.636
;TYPE:SKIN
G1 X167.191 Y176.647 E14.01377
G1 X167.036 Y176.939 E14.02124
G1 X166.566 Y177.574 E14.03907
G1 X166.328 Y177.812 E14.04667
G1 X165.691 Y178.284 E14.06456
G1 X165.386 Y178.448 E14.07238
G1 X164.868 Y178.648 E14.08491
G1 X164.115 Y178.797 E14.10224
G1 X163.541 Y178.809 E14.1152
G1 X162.991 Y178.739 E14.12772
G1 X162.647 Y178.652 E14.13572
G1 X162.112 Y178.448 E14.14865
G1 X161.81 Y178.285 E14.1564
G1 X161.172 Y177.811 E14.17434
G1 X160.935 Y177.574 E14.1819
G1 X160.464 Y176.939 E14.19975
G1 X160.302 Y176.636 E14.2075
G1 X160.103 Y176.111 E14.22018
G1 X159.935 Y175.38 E14.23711
G1 X159.952 Y174.637 E14.25388
G1 X160.103 Y173.879 E14.27133
G1 X160.302 Y173.364 E14.28379
G1 X160.469 Y173.053 E14.29176
G1 X160.934 Y172.426 E14.30938
G1 X161.176 Y172.185 E14.31709
G1 X161.808 Y171.716 E14.33486
G1 X162.114 Y171.552 E14.34269
G1 X162.632 Y171.352 E14.35523
G1 X163.385 Y171.203 E14.37255
G1 X163.959 Y171.191 E14.38551
G1 X164.509 Y171.261 E14.39803
G1 X164.853 Y171.348 E14.40604
G1 X165.36 Y171.543 E14.4183
G1 X166.048 Y171.956 E14.43641
G1 X166.467 Y172.318 E14.44891
G1 X166.683 Y172.558 E14.4562
G1 X167.036 Y173.059 E14.47003
G1 X167.191 Y173.352 E14.47752
G1 X167.564 Y174.364 E14.50186
G1 F3342.4 X167.901 Y174.714 E14.51367
G1 F2923.9 X168.483 Y175 E14.5317
G1 X167.901 Y175.286 E14.54972
G1 F3342.4 X167.564 Y175.636 E14.56153
G0 F3600 X168.483 Y175
G1 F2769.2 X181.408 Y175 E14.94081
G0 F3600 X182.436 Y175.636
G1 F3541 X182.091 Y175.278 E14.95222
G1 F3415 X181.426 Y175 E14.96937
G1 X182.091 Y174.722 E14.98652
G1 F3541 X182.437 Y174.364 E14.99795
G1 F3600 X182.808 Y173.354 E15.02224
G1 X182.969 Y173.052 E15.02996
G1 X183.434 Y172.426 E15.04756
G1 X183.676 Y172.185 E15.05527
G1 X184.308 Y171.716 E15.07304
G1 X184.614 Y171.552 E15.08087
G1 X185.132 Y171.352 E15.09341
G1 X185.885 Y171.203 E15.11073
G1 X186.459 Y171.191 E15.12369
G1 X187.009 Y171.261 E15.13621
G1 X187.353 Y171.348 E15.14422
G1 X187.886 Y171.552 E15.1571
G1 X188.191 Y171.716 E15.16492
G1 X188.825 Y172.185 E15.18272
G1 X189.066 Y172.426 E15.19041
G1 X189.532 Y173.053 E15.20805
