; G-Code generated by Simplify3D(R) Version 4.1.2
; Mar 18, 2023 at 6:34:45 AM
; Settings Summary
;   processName,Process1
;   applyToModels,Retraction_tower_test_002
;   profileName,Troodon 2.0 (modified)
;   profileVersion,2022-11-28 15:48:25
;   baseProfile,Default
;   printMaterial,PLA
;   printQuality,Fast
;   printExtruders,
;   extruderName,Primary Extruder
;   extruderToolheadNumber,0
;   extruderDiameter,0.4
;   extruderAutoWidth,0
;   extruderWidth,0.4
;   extrusionMultiplier,0.97
;   extruderUseRetract,1
;   extruderRetractionDistance,1
;   extruderExtraRestartDistance,0
;   extruderRetractionZLift,0
;   extruderRetractionSpeed,3600
;   extruderUseCoasting,0
;   extruderCoastingDistance,0
;   extruderUseWipe,0
;   extruderWipeDistance,5
;   primaryExtruder,0
;   layerHeight,0.2
;   topSolidLayers,5
;   bottomSolidLayers,4
;   perimeterOutlines,3
;   printPerimetersInsideOut,1
;   startPointOption,3
;   startPointOriginX,150
;   startPointOriginY,350
;   sequentialIslands,0
;   spiralVaseMode,0
;   firstLayerHeightPercentage,120
;   firstLayerWidthPercentage,200
;   firstLayerUnderspeed,0.3
;   useRaft,0
;   raftExtruder,0
;   raftTopLayers,3
;   raftBaseLayers,2
;   raftOffset,3
;   raftSeparationDistance,0.14
;   raftTopInfill,100
;   aboveRaftSpeedMultiplier,0.3
;   useSkirt,1
;   skirtExtruder,0
;   skirtLayers,1
;   skirtOutlines,1
;   skirtOffset,3
;   usePrimePillar,0
;   primePillarExtruder,999
;   primePillarWidth,12
;   primePillarLocation,7
;   primePillarSpeedMultiplier,1
;   useOozeShield,0
;   oozeShieldExtruder,999
;   oozeShieldOffset,2
;   oozeShieldOutlines,1
;   oozeShieldSidewallShape,1
;   oozeShieldSidewallAngle,30
;   oozeShieldSpeedMultiplier,1
;   infillExtruder,0
;   internalInfillPattern,Fast Honeycomb
;   externalInfillPattern,Rectilinear
;   infillPercentage,20
;   outlineOverlapPercentage,20
;   infillExtrusionWidthPercentage,100
;   minInfillLength,2
;   infillLayerInterval,1
;   internalInfillAngles,0
;   overlapInternalInfillAngles,0
;   externalInfillAngles,45,-45
;   generateSupport,0
;   supportExtruder,0
;   supportInfillPercentage,30
;   supportExtraInflation,0.5
;   supportBaseLayers,0
;   denseSupportExtruder,0
;   denseSupportLayers,0
;   denseSupportInfillPercentage,70
;   supportLayerInterval,1
;   supportHorizontalPartOffset,0.35
;   supportUpperSeparationLayers,1
;   supportLowerSeparationLayers,1
;   supportType,0
;   supportGridSpacing,3
;   maxOverhangAngle,30
;   supportAngles,0
;   temperatureName,Primary Extruder,Bed
;   temperatureNumber,0,2
;   temperatureSetpointCount,2,2
;   temperatureSetpointLayers,1,2,1,2
;   temperatureSetpointTemperatures,230,225,65,65
;   temperatureStabilizeAtStartup,1,1
;   temperatureHeatedBed,0,1
;   fanLayers,1,5
;   fanSpeeds,0,100
;   blipFanToFullPower,0
;   adjustSpeedForCooling,1
;   minSpeedLayerTime,15
;   minCoolingSpeedSlowdown,20
;   increaseFanForCooling,1
;   minFanLayerTime,10
;   maxCoolingFanSpeed,100
;   increaseFanForBridging,1
;   bridgingFanSpeed,100
;   use5D,1
;   relativeEdistances,1
;   allowEaxisZeroing,1
;   independentExtruderAxes,0
;   includeM10123,0
;   stickySupport,1
;   applyToolheadOffsets,0
;   gcodeXoffset,0
;   gcodeYoffset,0
;   gcodeZoffset,0
;   overrideMachineDefinition,1
;   machineTypeOverride,0
;   strokeXoverride,355
;   strokeYoverride,366
;   strokeZoverride,320
;   originOffsetXoverride,0
;   originOffsetYoverride,0
;   originOffsetZoverride,0
;   homeXdirOverride,-1
;   homeYdirOverride,-1
;   homeZdirOverride,-1
;   flipXoverride,-1
;   flipYoverride,1
;   flipZoverride,1
;   toolheadOffsets,0,0|0,0|0,0|0,0|0,0|0,0
;   overrideFirmwareConfiguration,1
;   firmwareTypeOverride,RepRap (Marlin/Repetier/Sprinter)
;   GPXconfigOverride,r2
;   baudRateOverride,115200
;   overridePrinterModels,0
;   printerModelsOverride
;   startingGcode,G28,M98 P"Nozzle-clean.g",G32,M98 P"Nozzle-clean.g",M98 P"AutoZ.g",G92 E0,G1 E-10 F1800,G1 X350 Y350 F10000,G92 E0,G1 E10 F540,G92 E0,G1 E-0.30000 F3600,G1 Z0.2500 F1000,G1 X100 Y350 E43.5631 F1000,G92 E0,G1 E-0.30000 F5400,,
;   layerChangeGcode,
;   retractionGcode,
;   toolChangeGcode,
;   endingGcode,G91  ;relative positioning,G1 E-5.00 F1000  ;retract 5mm of filament,G1 Z+1.00 X+20.0 Y+20.0 F20000  ;short quick move to disengage from print,G1 Z+10.00  F20000  ;move Z-Axis 10mm away from part,G90  ;absolute positioning,G28 X0 Y0  ; move gantry close to home,G91  ; relative positioning,G1 E-5.00 F500  ;retract additional filament to prevent oozing,G90 ;absolute positioning,M104 S0  ;turn off hotend,M140 S0  ;turn off heatbed,M106 S0  ; shut off blower,M84  ;motors off
;   exportFileFormat,gcode
;   celebration,0
;   celebrationSong,Star Wars
;   postProcessing,{REPLACE "G1 E-1.0000 F6000\n" "G10\n"} ; firmware retract,{REPLACE "G1 E1.0000 F6000\n" "G11\n"} ; firmware unretract,{REPLACE "G1 E1.0000 F1800\n" "G11\n"} ; firmware skirt unretract,{REPLACE "G1 E3091.6538 F1800" "; Remove -"},,
;   defaultSpeed,5400
;   outlineUnderspeed,0.4
;   solidInfillUnderspeed,0.6
;   supportUnderspeed,0.8
;   rapidXYspeed,18000
;   rapidZspeed,9000
;   minBridgingArea,5
;   bridgingExtraInflation,1
;   bridgingExtrusionMultiplier,0.9
;   bridgingSpeedMultiplier,1.1
;   useFixedBridgingAngle,0
;   fixedBridgingAngle,0
;   applyBridgingToPerimeters,0
;   filamentDiameters,1.75|1.75|1.75|1.75|1.75|1.75
;   filamentPricesPerKg,46|46|46|46|46|46
;   filamentDensities,1.25|1.25|1.25|1.25|1.25|1.25
;   useMinPrintHeight,0
;   minPrintHeight,0
;   useMaxPrintHeight,0
;   maxPrintHeight,0
;   useDiaphragm,0
;   diaphragmLayerInterval,20
;   robustSlicing,1
;   mergeAllIntoSolid,0
;   onlyRetractWhenCrossingOutline,1
;   retractBetweenLayers,1
;   useRetractionMinTravel,0
;   retractionMinTravel,3
;   retractWhileWiping,0
;   onlyWipeOutlines,1
;   avoidCrossingOutline,0
;   maxMovementDetourFactor,50
;   toolChangeRetractionDistance,12
;   toolChangeExtraRestartDistance,-0.5
;   toolChangeRetractionSpeed,600
;   externalThinWallType,0
;   internalThinWallType,2
;   thinWallAllowedOverlapPercentage,10
;   singleExtrusionMinLength,1
;   singleExtrusionMinPrintingWidthPercentage,50
;   singleExtrusionMaxPrintingWidthPercentage,200
;   singleExtrusionEndpointExtension,0.2
;   horizontalSizeCompensation,0
G90
M83
M106 S0
M140 S65
M190 S65
M104 S230 T0
M109 S230 T0
G28
M98 P"Nozzle-clean.g"
G32
M98 P"Nozzle-clean.g"
M98 P"AutoZ.g"
G92 E0
G1 E-10 F1800
G1 X350 Y350 F10000
G92 E0
G1 E10 F540
G92 E0
G1 E-0.30000 F3600
G1 Z0.2500 F1000
G1 X100 Y350 E43.5631 F1000
G92 E0
G1 E-0.30000 F5400
; process Process1
; layer 1, Z = 0.240
T0
G1 E-1.0000 F3600
; feature skirt
; tool H0.240 W0.800
G1 Z0.240 F9000
G1 X165.510 Y191.368 F18000
G1 E1.0000 F3600
G1 X165.344 Y191.351 E0.0129 F1620
G1 X164.693 Y191.255 E0.0509
G1 X164.529 Y191.222 E0.0129
G1 X163.891 Y191.062 E0.0509
G1 X163.732 Y191.014 E0.0129
G1 X163.093 Y190.786 E0.0525
G1 X162.901 Y190.703 E0.0162
G1 X162.039 Y190.269 E0.0747
G1 X161.824 Y190.141 E0.0194
G1 X161.035 Y189.585 E0.0747
G1 X160.872 Y189.454 E0.0162
G1 X160.369 Y188.999 E0.0525
G1 X160.251 Y188.881 E0.0129
G1 X159.810 Y188.394 E0.0509
G1 X159.704 Y188.264 E0.0130
G1 X159.312 Y187.736 E0.0509
G1 X159.219 Y187.597 E0.0129
G1 X158.871 Y187.016 E0.0525
G1 X158.774 Y186.830 E0.0162
G1 X158.383 Y185.948 E0.0747
G1 X158.299 Y185.712 E0.0194
G1 X158.041 Y184.782 E0.0747
G1 X157.998 Y184.578 E0.0162
G1 X157.896 Y183.886 E0.0541
G1 X157.878 Y183.678 E0.0162
G1 X157.854 Y182.734 E0.0731
G1 X157.862 Y182.525 E0.0162
G1 X157.929 Y181.850 E0.0525
G1 X157.953 Y181.685 E0.0129
G1 X158.085 Y181.020 E0.0525
G1 X158.139 Y180.818 E0.0162
G1 X158.435 Y179.921 E0.0731
G1 X158.512 Y179.727 E0.0162
G1 X158.803 Y179.114 E0.0525
G1 X158.881 Y178.966 E0.0129
G1 X159.219 Y178.403 E0.0509
G1 X159.312 Y178.264 E0.0129
G1 X159.704 Y177.736 E0.0509
G1 X159.810 Y177.606 E0.0130
G1 X160.251 Y177.119 E0.0509
G1 X160.369 Y177.001 E0.0129
G1 X160.856 Y176.560 E0.0509
G1 X160.986 Y176.454 E0.0129
G1 X161.514 Y176.062 E0.0509
G1 X161.653 Y175.969 E0.0129
G1 X162.217 Y175.631 E0.0509
G1 X162.364 Y175.553 E0.0129
G1 X162.958 Y175.271 E0.0509
G1 X163.113 Y175.207 E0.0129
G1 X163.732 Y174.986 E0.0509
G1 X163.891 Y174.938 E0.0129
G1 X164.529 Y174.778 E0.0509
G1 X164.693 Y174.745 E0.0129
G1 X165.344 Y174.649 E0.0509
G1 X165.510 Y174.632 E0.0129
G1 X166.167 Y174.600 E0.0509
G1 X166.333 Y174.600 E0.0129
G1 X166.990 Y174.632 E0.0509
G1 X167.156 Y174.649 E0.0129
G1 X167.807 Y174.745 E0.0509
G1 X167.971 Y174.778 E0.0129
G1 X168.609 Y174.938 E0.0509
G1 X168.768 Y174.986 E0.0129
G1 X169.407 Y175.214 E0.0525
G1 X169.599 Y175.297 E0.0162
G1 X170.442 Y175.721 E0.0731
G1 X170.623 Y175.826 E0.0162
G1 X171.187 Y176.203 E0.0525
G1 X171.321 Y176.303 E0.0129
G1 X171.829 Y176.720 E0.0509
G1 X171.953 Y176.832 E0.0129
G1 X172.418 Y177.297 E0.0509
G1 X172.530 Y177.421 E0.0129
G1 X172.947 Y177.929 E0.0509
G1 X173.047 Y178.063 E0.0129
G1 X173.238 Y178.350 E0.0267
G1 X181.754 Y178.350 E0.6594
G1 X181.835 Y178.229 E0.0113
G1 X182.429 Y177.468 E0.0747
G1 X182.567 Y177.312 E0.0162
G1 X183.047 Y176.832 E0.0525
G1 X183.171 Y176.720 E0.0129
G1 X183.695 Y176.290 E0.0525
G1 X183.864 Y176.167 E0.0162
G1 X184.680 Y175.651 E0.0747
G1 X184.901 Y175.533 E0.0194
G1 X185.802 Y175.133 E0.0763
G1 X186.038 Y175.049 E0.0194
G1 X186.968 Y174.791 E0.0747
G1 X187.172 Y174.748 E0.0162
G1 X187.844 Y174.649 E0.0525
G1 X188.010 Y174.632 E0.0129
G1 X188.667 Y174.600 E0.0509
G1 X188.833 Y174.600 E0.0129
G1 X189.490 Y174.632 E0.0509
G1 X189.656 Y174.649 E0.0129
G1 X190.307 Y174.745 E0.0509
G1 X190.471 Y174.778 E0.0129
G1 X191.109 Y174.938 E0.0509
G1 X191.268 Y174.986 E0.0129
G1 X191.887 Y175.207 E0.0509
G1 X192.042 Y175.271 E0.0129
G1 X192.636 Y175.553 E0.0509
G1 X192.783 Y175.631 E0.0129
G1 X193.347 Y175.969 E0.0509
G1 X193.486 Y176.062 E0.0129
G1 X194.014 Y176.454 E0.0509
G1 X194.144 Y176.560 E0.0129
G1 X194.631 Y177.001 E0.0509
G1 X194.749 Y177.119 E0.0129
G1 X195.190 Y177.606 E0.0509
G1 X195.296 Y177.736 E0.0130
G1 X195.688 Y178.264 E0.0509
G1 X195.781 Y178.403 E0.0129
G1 X196.119 Y178.966 E0.0509
G1 X196.197 Y179.114 E0.0129
G1 X196.479 Y179.708 E0.0509
G1 X196.543 Y179.863 E0.0129
G1 X196.764 Y180.482 E0.0509
G1 X196.813 Y180.642 E0.0129
G1 X196.972 Y181.279 E0.0509
G1 X197.005 Y181.443 E0.0129
G1 X197.101 Y182.094 E0.0509
G1 X197.118 Y182.260 E0.0129
G1 X197.150 Y182.916 E0.0509
G1 X197.150 Y183.084 E0.0129
G1 X197.118 Y183.740 E0.0509
G1 X197.101 Y183.906 E0.0129
G1 X197.005 Y184.557 E0.0509
G1 X196.972 Y184.721 E0.0129
G1 X196.813 Y185.358 E0.0509
G1 X196.764 Y185.518 E0.0129
G1 X196.543 Y186.137 E0.0509
G1 X196.479 Y186.292 E0.0129
G1 X196.197 Y186.886 E0.0509
G1 X196.119 Y187.034 E0.0129
G1 X195.781 Y187.597 E0.0509
G1 X195.688 Y187.736 E0.0129
G1 X195.296 Y188.264 E0.0509
G1 X195.190 Y188.394 E0.0130
G1 X194.749 Y188.881 E0.0509
G1 X194.631 Y188.999 E0.0129
G1 X194.144 Y189.440 E0.0509
G1 X194.014 Y189.546 E0.0129
G1 X193.486 Y189.938 E0.0509
G1 X193.347 Y190.031 E0.0129
G1 X192.783 Y190.369 E0.0509
G1 X192.636 Y190.447 E0.0129
G1 X192.042 Y190.729 E0.0509
G1 X191.887 Y190.793 E0.0129
G1 X191.268 Y191.014 E0.0509
G1 X191.109 Y191.062 E0.0129
G1 X190.471 Y191.222 E0.0509
G1 X190.307 Y191.255 E0.0129
G1 X189.656 Y191.351 E0.0509
G1 X189.490 Y191.368 E0.0129
G1 X188.833 Y191.400 E0.0509
G1 X188.667 Y191.400 E0.0129
G1 X188.010 Y191.368 E0.0509
G1 X187.844 Y191.351 E0.0129
G1 X187.152 Y191.249 E0.0542
G1 X186.907 Y191.194 E0.0194
G1 X185.730 Y190.837 E0.0953
G1 X185.496 Y190.746 E0.0194
G1 X184.864 Y190.447 E0.0542
G1 X184.717 Y190.369 E0.0129
G1 X184.135 Y190.020 E0.0525
G1 X183.963 Y189.902 E0.0162
G1 X183.218 Y189.321 E0.0731
G1 X183.062 Y189.183 E0.0162
G1 X182.582 Y188.703 E0.0525
G1 X182.470 Y188.579 E0.0129
G1 X182.026 Y188.039 E0.0541
G1 X181.882 Y187.834 E0.0194
G1 X181.772 Y187.650 E0.0166
G1 X173.238 Y187.650 E0.6607
G1 X173.047 Y187.937 E0.0267
G1 X172.947 Y188.071 E0.0129
G1 X172.530 Y188.579 E0.0509
G1 X172.418 Y188.703 E0.0129
G1 X171.953 Y189.168 E0.0509
G1 X171.829 Y189.280 E0.0129
G1 X171.305 Y189.710 E0.0525
G1 X171.136 Y189.833 E0.0162
G1 X170.338 Y190.338 E0.0731
G1 X170.155 Y190.439 E0.0162
G1 X169.542 Y190.729 E0.0525
G1 X169.387 Y190.793 E0.0129
G1 X168.768 Y191.014 E0.0509
G1 X168.609 Y191.062 E0.0129
G1 X167.971 Y191.222 E0.0509
G1 X167.807 Y191.255 E0.0129
G1 X167.156 Y191.351 E0.0509
G1 X166.990 Y191.368 E0.0129
G1 X166.333 Y191.400 E0.0509
G1 X166.167 Y191.400 E0.0129
G1 X165.510 Y191.368 E0.0509
G1 E-1.0000 F3600
; feature inner perimeter
G1 X165.956 Y185.983 F18000
G1 E1.0000 F3600
G1 X165.665 Y185.940 E0.0228 F1134
G1 X165.380 Y185.869 E0.0228
G1 X165.103 Y185.769 E0.0228
G1 X164.815 Y185.633 E0.0247
G1 X164.708 Y185.573 E0.0095
G1 X164.604 Y185.507 E0.0095
G1 X164.348 Y185.317 E0.0246
G1 X164.130 Y185.120 E0.0228
G1 X163.933 Y184.902 E0.0228
G1 X163.758 Y184.666 E0.0228
G1 X163.606 Y184.413 E0.0228
G1 X163.470 Y184.125 E0.0247
G1 X163.435 Y184.034 E0.0076
G1 X163.335 Y183.705 E0.0266
G1 X163.314 Y183.609 E0.0076
G1 X163.267 Y183.294 E0.0247
G1 X163.251 Y182.975 E0.0247
G1 X163.254 Y182.878 E0.0076
G1 X163.285 Y182.560 E0.0247
G1 X163.342 Y182.272 E0.0228
G1 X163.435 Y181.967 E0.0247
G1 X163.470 Y181.875 E0.0076
G1 X163.606 Y181.587 E0.0247
G1 X163.758 Y181.334 E0.0228
G1 X163.933 Y181.098 E0.0228
G1 X164.130 Y180.880 E0.0228
G1 X164.348 Y180.683 E0.0228
G1 X164.604 Y180.493 E0.0246
G1 X164.708 Y180.427 E0.0095
G1 X164.815 Y180.367 E0.0095
G1 X165.103 Y180.231 E0.0247
G1 X165.380 Y180.131 E0.0228
G1 X165.665 Y180.060 E0.0228
G1 X165.956 Y180.017 E0.0228
G1 X166.250 Y180.002 E0.0228
G1 X166.544 Y180.017 E0.0228
G1 X166.835 Y180.060 E0.0228
G1 X167.120 Y180.131 E0.0228
G1 X167.397 Y180.231 E0.0228
G1 X167.685 Y180.367 E0.0247
G1 X167.771 Y180.415 E0.0076
G1 X168.036 Y180.592 E0.0247
G1 X168.263 Y180.779 E0.0228
G1 X168.471 Y180.987 E0.0228
G1 X168.658 Y181.214 E0.0228
G1 X168.821 Y181.459 E0.0228
G1 X168.960 Y181.718 E0.0228
G1 X169.073 Y181.992 E0.0229
G1 X169.381 Y183.000 E0.0816
G1 X169.073 Y184.008 E0.0816
G1 X168.960 Y184.282 E0.0229
G1 X168.821 Y184.541 E0.0228
G1 X168.658 Y184.786 E0.0228
G1 X168.471 Y185.013 E0.0228
G1 X168.263 Y185.221 E0.0228
G1 X168.036 Y185.408 E0.0228
G1 X167.771 Y185.585 E0.0247
G1 X167.685 Y185.633 E0.0076
G1 X167.397 Y185.769 E0.0247
G1 X167.120 Y185.869 E0.0228
G1 X166.835 Y185.940 E0.0228
G1 X166.544 Y185.983 E0.0228
G1 X166.250 Y185.998 E0.0228
G1 X165.956 Y185.983 E0.0228
G1 E-1.0000 F3600
G1 X185.619 Y183.000 F18000
G1 E1.0000 F3600
G1 X185.927 Y181.992 E0.0816 F1134
G1 X186.050 Y181.696 E0.0248
G1 X186.094 Y181.608 E0.0076
G1 X186.270 Y181.313 E0.0266
G1 X186.327 Y181.233 E0.0076
G1 X186.529 Y180.987 E0.0247
G1 X186.737 Y180.779 E0.0228
G1 X186.983 Y180.577 E0.0246
G1 X187.064 Y180.520 E0.0076
G1 X187.337 Y180.356 E0.0247
G1 X187.625 Y180.220 E0.0247
G1 X187.717 Y180.185 E0.0076
G1 X188.045 Y180.085 E0.0266
G1 X188.141 Y180.064 E0.0076
G1 X188.456 Y180.017 E0.0247
G1 X188.750 Y180.002 E0.0228
G1 X189.044 Y180.017 E0.0228
G1 X189.335 Y180.060 E0.0228
G1 X189.620 Y180.131 E0.0228
G1 X189.897 Y180.231 E0.0228
G1 X190.163 Y180.356 E0.0228
G1 X190.415 Y180.508 E0.0228
G1 X190.651 Y180.683 E0.0227
G1 X190.870 Y180.881 E0.0228
G1 X191.067 Y181.098 E0.0228
G1 X191.242 Y181.335 E0.0228
G1 X191.394 Y181.587 E0.0228
G1 X191.519 Y181.853 E0.0228
G1 X191.618 Y182.130 E0.0228
G1 X191.690 Y182.415 E0.0228
G1 X191.733 Y182.706 E0.0228
G1 X191.748 Y183.000 E0.0228
G1 X191.733 Y183.294 E0.0228
G1 X191.690 Y183.585 E0.0228
G1 X191.618 Y183.870 E0.0228
G1 X191.519 Y184.147 E0.0228
G1 X191.394 Y184.413 E0.0228
G1 X191.242 Y184.665 E0.0228
G1 X191.067 Y184.902 E0.0228
G1 X190.870 Y185.119 E0.0228
G1 X190.651 Y185.317 E0.0228
G1 X190.415 Y185.492 E0.0227
G1 X190.163 Y185.644 E0.0228
G1 X189.897 Y185.769 E0.0228
G1 X189.620 Y185.869 E0.0228
G1 X189.335 Y185.940 E0.0228
G1 X189.044 Y185.983 E0.0228
G1 X188.750 Y185.998 E0.0228
G1 X188.456 Y185.983 E0.0228
G1 X188.141 Y185.936 E0.0247
G1 X188.045 Y185.915 E0.0076
G1 X187.717 Y185.815 E0.0266
G1 X187.625 Y185.780 E0.0076
