; G-Code generated by Simplify3D(R) Version 4.1.2
; Mar 18, 2023 at 7:44:34 AM
; Settings Summary
;   processName,Process1
;   applyToModels,telefon_stand
;   profileName,Troodon 2.0 (modified)
;   profileVersion,2022-11-28 15:48:25
;   baseProfile,Default
;   printMaterial,PLA
;   printQuality,Fast
;   printExtruders,
;   extruderName,Primary Extruder
;   extruderToolheadNumber,0
;   extruderDiameter,0.4
;   extruderAutoWidth,0
;   extruderWidth,0.4
;   extrusionMultiplier,0.97
;   extruderUseRetract,1
;   extruderRetractionDistance,1
;   extruderExtraRestartDistance,0
;   extruderRetractionZLift,0
;   extruderRetractionSpeed,3600
;   extruderUseCoasting,0
;   extruderCoastingDistance,0
;   extruderUseWipe,0
;   extruderWipeDistance,5
;   primaryExtruder,0
;   layerHeight,0.2
;   topSolidLayers,5
;   bottomSolidLayers,4
;   perimeterOutlines,3
;   printPerimetersInsideOut,1
;   startPointOption,3
;   startPointOriginX,150
;   startPointOriginY,350
;   sequentialIslands,0
;   spiralVaseMode,0
;   firstLayerHeightPercentage,120
;   firstLayerWidthPercentage,200
;   firstLayerUnderspeed,0.3
;   useRaft,0
;   raftExtruder,0
;   raftTopLayers,3
;   raftBaseLayers,2
;   raftOffset,3
;   raftSeparationDistance,0.14
;   raftTopInfill,100
;   aboveRaftSpeedMultiplier,0.3
;   useSkirt,1
;   skirtExtruder,0
;   skirtLayers,1
;   skirtOutlines,1
;   skirtOffset,3
;   usePrimePillar,0
;   primePillarExtruder,999
;   primePillarWidth,12
;   primePillarLocation,7
;   primePillarSpeedMultiplier,1
;   useOozeShield,0
;   oozeShieldExtruder,999
;   oozeShieldOffset,2
;   oozeShieldOutlines,1
;   oozeShieldSidewallShape,1
;   oozeShieldSidewallAngle,30
;   oozeShieldSpeedMultiplier,1
;   infillExtruder,0
;   internalInfillPattern,Fast Honeycomb
;   externalInfillPattern,Rectilinear
;   infillPercentage,20
;   outlineOverlapPercentage,20
;   infillExtrusionWidthPercentage,100
;   minInfillLength,2
;   infillLayerInterval,1
;   internalInfillAngles,0
;   overlapInternalInfillAngles,0
;   externalInfillAngles,45,-45
;   generateSupport,0
;   supportExtruder,0
;   supportInfillPercentage,30
;   supportExtraInflation,0.5
;   supportBaseLayers,0
;   denseSupportExtruder,0
;   denseSupportLayers,0
;   denseSupportInfillPercentage,70
;   supportLayerInterval,1
;   supportHorizontalPartOffset,0.35
;   supportUpperSeparationLayers,1
;   supportLowerSeparationLayers,1
;   supportType,0
;   supportGridSpacing,3
;   maxOverhangAngle,30
;   supportAngles,0
;   temperatureName,Primary Extruder,Bed
;   temperatureNumber,0,2
;   temperatureSetpointCount,2,2
;   temperatureSetpointLayers,1,2,1,2
;   temperatureSetpointTemperatures,230,225,65,65
;   temperatureStabilizeAtStartup,1,1
;   temperatureHeatedBed,0,1
;   fanLayers,1,5
;   fanSpeeds,0,100
;   blipFanToFullPower,0
;   adjustSpeedForCooling,1
;   minSpeedLayerTime,15
;   minCoolingSpeedSlowdown,20
;   increaseFanForCooling,1
;   minFanLayerTime,10
;   maxCoolingFanSpeed,100
;   increaseFanForBridging,1
;   bridgingFanSpeed,100
;   use5D,1
;   relativeEdistances,1
;   allowEaxisZeroing,1
;   independentExtruderAxes,0
;   includeM10123,0
;   stickySupport,1
;   applyToolheadOffsets,0
;   gcodeXoffset,0
;   gcodeYoffset,0
;   gcodeZoffset,0
;   overrideMachineDefinition,1
;   machineTypeOverride,0
;   strokeXoverride,355
;   strokeYoverride,366
;   strokeZoverride,320
;   originOffsetXoverride,0
;   originOffsetYoverride,0
;   originOffsetZoverride,0
;   homeXdirOverride,-1
;   homeYdirOverride,-1
;   homeZdirOverride,-1
;   flipXoverride,-1
;   flipYoverride,1
;   flipZoverride,1
;   toolheadOffsets,0,0|0,0|0,0|0,0|0,0|0,0
;   overrideFirmwareConfiguration,1
;   firmwareTypeOverride,RepRap (Marlin/Repetier/Sprinter)
;   GPXconfigOverride,r2
;   baudRateOverride,115200
;   overridePrinterModels,0
;   printerModelsOverride
;   startingGcode,G28,M98 P"Nozzle-clean.g",G32,M98 P"Nozzle-clean.g",M98 P"AutoZ.g",G92 E0,G1 E-10 F1800,G1 X350 Y350 F10000,G92 E0,G1 E10 F540,G92 E0,G1 E-0.30000 F3600,G1 Z0.2500 F1000,G1 X100 Y350 E43.5631 F1000,G92 E0,G1 E-0.30000 F5400,,
;   layerChangeGcode,
;   retractionGcode,
;   toolChangeGcode,
;   endingGcode,G91  ;relative positioning,G1 E-5.00 F1000  ;retract 5mm of filament,G1 Z+1.00 X+20.0 Y+20.0 F20000  ;short quick move to disengage from print,G1 Z+10.00  F20000  ;move Z-Axis 10mm away from part,G90  ;absolute positioning,G28 X0 Y0  ; move gantry close to home,G91  ; relative positioning,G1 E-5.00 F500  ;retract additional filament to prevent oozing,G90 ;absolute positioning,M104 S0  ;turn off hotend,M140 S0  ;turn off heatbed,M106 S0  ; shut off blower,M84  ;motors off
;   exportFileFormat,gcode
;   celebration,0
;   celebrationSong,Star Wars
;   postProcessing,{REPLACE "G1 E-1.0000 F6000\n" "G10\n"} ; firmware retract,{REPLACE "G1 E1.0000 F6000\n" "G11\n"} ; firmware unretract,{REPLACE "G1 E1.0000 F1800\n" "G11\n"} ; firmware skirt unretract,{REPLACE "G1 E3091.6538 F1800" "; Remove -"},,
;   defaultSpeed,5400
;   outlineUnderspeed,0.4
;   solidInfillUnderspeed,0.6
;   supportUnderspeed,0.8
;   rapidXYspeed,18000
;   rapidZspeed,9000
;   minBridgingArea,5
;   bridgingExtraInflation,1
;   bridgingExtrusionMultiplier,0.9
;   bridgingSpeedMultiplier,1.1
;   useFixedBridgingAngle,0
;   fixedBridgingAngle,0
;   applyBridgingToPerimeters,0
;   filamentDiameters,1.75|1.75|1.75|1.75|1.75|1.75
;   filamentPricesPerKg,46|46|46|46|46|46
;   filamentDensities,1.25|1.25|1.25|1.25|1.25|1.25
;   useMinPrintHeight,0
;   minPrintHeight,0
;   useMaxPrintHeight,0
;   maxPrintHeight,0
;   useDiaphragm,0
;   diaphragmLayerInterval,20
;   robustSlicing,1
;   mergeAllIntoSolid,0
;   onlyRetractWhenCrossingOutline,1
;   retractBetweenLayers,1
;   useRetractionMinTravel,0
;   retractionMinTravel,3
;   retractWhileWiping,0
;   onlyWipeOutlines,1
;   avoidCrossingOutline,0
;   maxMovementDetourFactor,50
;   toolChangeRetractionDistance,12
;   toolChangeExtraRestartDistance,-0.5
;   toolChangeRetractionSpeed,600
;   externalThinWallType,0
;   internalThinWallType,2
;   thinWallAllowedOverlapPercentage,10
;   singleExtrusionMinLength,1
;   singleExtrusionMinPrintingWidthPercentage,50
;   singleExtrusionMaxPrintingWidthPercentage,200
;   singleExtrusionEndpointExtension,0.2
;   horizontalSizeCompensation,0
G90
M83
M106 S0
M140 S65
M190 S65
M104 S230 T0
M109 S230 T0
G28
M98 P"Nozzle-clean.g"
G32
M98 P"Nozzle-clean.g"
M98 P"AutoZ.g"
G92 E0
G1 E-10 F1800
G1 X350 Y350 F10000
G92 E0
G1 E10 F540
G92 E0
G1 E-0.30000 F3600
G1 Z0.2500 F1000
G1 X100 Y350 E43.5631 F1000
G92 E0
G1 E-0.30000 F5400
; process Process1
; layer 1, Z = 0.240
T0
G1 E-1.0000 F3600
; feature skirt
; tool H0.240 W0.800
G1 Z0.240 F9000
G1 X120.268 Y223.246 F18000
G1 E1.0000 F3600
G1 X118.276 Y221.255 E0.2181 F1620
G1 X118.276 Y144.745 E5.9241
G1 X120.268 Y142.754 E0.2181
G1 X234.758 Y142.754 E8.8650
G1 X236.750 Y144.745 E0.2181
G1 X236.750 Y221.255 E5.9241
G1 X234.758 Y223.246 E0.2181
G1 X120.268 Y223.246 E8.8650
G1 E-1.0000 F3600
; feature inner perimeter
G1 X123.676 Y217.846 F18000
G1 E1.0000 F3600
G1 X123.676 Y148.154 E5.3963 F1134
G1 X231.350 Y148.154 E8.3372
G1 X231.350 Y157.500 E0.7237
G1 X167.404 Y157.500 E4.9513
G1 X167.404 Y151.000 E0.5033
G1 X156.404 Y151.000 E0.8517
G1 X156.404 Y165.000 E1.0840
G1 X149.404 Y165.000 E0.5420
G1 X149.404 Y201.000 E2.7875
G1 X156.404 Y201.000 E0.5420
G1 X156.404 Y215.000 E1.0840
G1 X167.404 Y215.000 E0.8517
G1 X167.404 Y208.500 E0.5033
G1 X231.350 Y208.500 E4.9513
G1 X231.350 Y217.846 E0.7237
G1 X123.676 Y217.846 E8.3372
G1 X122.876 Y218.646 F18000
G1 X122.876 Y147.354 E5.5202 F1134
G1 X232.150 Y147.354 E8.4611
G1 X232.150 Y218.646 E5.5202
G1 X122.876 Y218.646 E8.4611
; feature outer perimeter
G1 X122.076 Y219.446 F18000
G1 X122.076 Y146.554 E5.6441 F648
G1 X232.950 Y146.554 E8.5849
G1 X232.950 Y219.446 E5.6441
G1 X122.076 Y219.446 E8.5849
; feature inner perimeter
G1 X150.204 Y200.200 F18000
G1 X157.204 Y200.200 E0.5420 F1134
G1 X157.204 Y214.200 E1.0840
G1 X166.604 Y214.200 E0.7278
G1 X166.604 Y207.700 E0.5033
G1 X230.601 Y207.700 E4.9553
G1 X230.604 Y158.300 E3.8250
G1 X166.604 Y158.300 E4.9555
G1 X166.604 Y151.800 E0.5033
G1 X157.204 Y151.800 E0.7278
G1 X157.204 Y165.800 E1.0840
G1 X150.204 Y165.800 E0.5420
G1 X150.204 Y200.200 E2.6636
; feature outer perimeter
G1 X151.004 Y199.400 F18000
G1 X158.004 Y199.400 E0.5420 F648
G1 X158.004 Y213.400 E1.0840
G1 X165.804 Y213.400 E0.6040
G1 X165.804 Y206.900 E0.5033
G1 X229.801 Y206.900 E4.9553
G1 X229.804 Y159.100 E3.7011
G1 X165.804 Y159.100 E4.9555
G1 X165.804 Y152.600 E0.5033
G1 X158.004 Y152.600 E0.6040
G1 X158.004 Y166.600 E1.0840
G1 X151.004 Y166.600 E0.5420
G1 X151.004 Y199.400 E2.5397
G1 E-1.0000 F3600
; feature gap fill
; tool H0.240 W0.400
G1 X231.041 Y207.691 F18000
G1 E1.0000 F3600
G1 X231.402 Y208.052 E0.0198 F1620
G1 X231.710 Y208.052 E0.0119
G1 X231.710 Y207.794 E0.0100
G1 X231.041 Y207.126 E0.0366
G1 X231.041 Y206.560 E0.0219
G1 X231.710 Y207.229 E0.0366
G1 X231.710 Y206.663 E0.0219
G1 X231.041 Y205.994 E0.0366
G1 X231.041 Y205.429 E0.0219
G1 X231.710 Y206.097 E0.0366
G1 X231.710 Y205.532 E0.0219
G1 X231.041 Y204.863 E0.0366
G1 X231.041 Y204.297 E0.0219
G1 X231.710 Y204.966 E0.0366
G1 X231.710 Y204.400 E0.0219
G1 X231.041 Y203.732 E0.0366
G1 X231.041 Y203.166 E0.0219
G1 X231.710 Y203.835 E0.0366
G1 X231.710 Y203.269 E0.0219
G1 X231.041 Y202.600 E0.0366
G1 X231.042 Y202.035 E0.0219
G1 X231.710 Y202.703 E0.0366
G1 X231.710 Y202.138 E0.0219
G1 X231.042 Y201.469 E0.0366
G1 X231.042 Y200.903 E0.0219
G1 X231.710 Y201.572 E0.0366
G1 X231.710 Y201.006 E0.0219
G1 X231.042 Y200.338 E0.0366
G1 X231.042 Y199.772 E0.0219
G1 X231.710 Y200.441 E0.0366
G1 X231.710 Y199.875 E0.0219
G1 X231.042 Y199.206 E0.0366
G1 X231.042 Y198.641 E0.0219
G1 X231.710 Y199.309 E0.0366
G1 X231.710 Y198.743 E0.0219
G1 X231.042 Y198.075 E0.0366
G1 X231.042 Y197.510 E0.0219
G1 X231.710 Y198.178 E0.0366
G1 X231.710 Y197.612 E0.0219
G1 X231.042 Y196.944 E0.0366
G1 X231.042 Y196.378 E0.0219
G1 X231.710 Y197.046 E0.0366
G1 X231.710 Y196.481 E0.0219
G1 X231.042 Y195.813 E0.0366
G1 X231.042 Y195.247 E0.0219
G1 X231.710 Y195.915 E0.0366
G1 X231.710 Y195.349 E0.0219
G1 X231.042 Y194.681 E0.0366
G1 X231.042 Y194.116 E0.0219
G1 X231.710 Y194.784 E0.0366
G1 X231.710 Y194.218 E0.0219
G1 X231.042 Y193.550 E0.0366
G1 X231.042 Y192.984 E0.0219
G1 X231.710 Y193.652 E0.0366
G1 X231.710 Y193.087 E0.0219
G1 X231.042 Y192.419 E0.0366
G1 X231.042 Y191.853 E0.0219
G1 X231.710 Y192.521 E0.0366
G1 X231.710 Y191.955 E0.0219
G1 X231.042 Y191.287 E0.0366
G1 X231.042 Y190.722 E0.0219
G1 X231.710 Y191.390 E0.0366
G1 X231.710 Y190.824 E0.0219
G1 X231.042 Y190.156 E0.0366
G1 X231.042 Y189.590 E0.0219
G1 X231.710 Y190.258 E0.0366
G1 X231.710 Y189.693 E0.0219
G1 X231.042 Y189.025 E0.0366
G1 X231.042 Y188.459 E0.0219
G1 X231.710 Y189.127 E0.0366
G1 X231.710 Y188.561 E0.0219
G1 X231.042 Y187.893 E0.0366
G1 X231.042 Y187.328 E0.0219
G1 X231.710 Y187.995 E0.0366
G1 X231.710 Y187.430 E0.0219
G1 X231.042 Y186.762 E0.0366
G1 X231.043 Y186.197 E0.0219
G1 X231.710 Y186.864 E0.0366
G1 X231.710 Y186.298 E0.0219
G1 X231.043 Y185.631 E0.0365
G1 X231.043 Y185.065 E0.0219
G1 X231.710 Y185.733 E0.0365
G1 X231.710 Y185.167 E0.0219
G1 X231.043 Y184.500 E0.0365
G1 X231.043 Y183.934 E0.0219
G1 X231.710 Y184.601 E0.0365
G1 X231.710 Y184.036 E0.0219
G1 X231.043 Y183.368 E0.0365
G1 X231.043 Y182.803 E0.0219
G1 X231.710 Y183.470 E0.0365
G1 X231.710 Y182.904 E0.0219
G1 X231.043 Y182.237 E0.0365
G1 X231.043 Y181.671 E0.0219
G1 X231.710 Y182.339 E0.0365
G1 X231.710 Y181.773 E0.0219
G1 X231.043 Y181.106 E0.0365
G1 X231.043 Y180.540 E0.0219
G1 X231.710 Y181.207 E0.0365
G1 X231.710 Y180.642 E0.0219
G1 X231.043 Y179.974 E0.0365
G1 X231.043 Y179.409 E0.0219
G1 X231.710 Y180.076 E0.0365
G1 X231.710 Y179.510 E0.0219
G1 X231.043 Y178.843 E0.0365
G1 X231.043 Y178.277 E0.0219
G1 X231.710 Y178.944 E0.0365
G1 X231.710 Y178.379 E0.0219
G1 X231.043 Y177.712 E0.0365
G1 X231.043 Y177.146 E0.0219
G1 X231.710 Y177.813 E0.0365
G1 X231.710 Y177.247 E0.0219
G1 X231.043 Y176.580 E0.0365
G1 X231.043 Y176.015 E0.0219
G1 X231.710 Y176.682 E0.0365
G1 X231.710 Y176.116 E0.0219
G1 X231.043 Y175.449 E0.0365
G1 X231.043 Y174.884 E0.0219
G1 X231.710 Y175.550 E0.0365
G1 X231.710 Y174.985 E0.0219
G1 X231.043 Y174.318 E0.0365
G1 X231.043 Y173.752 E0.0219
G1 X231.710 Y174.419 E0.0365
G1 X231.710 Y173.853 E0.0219
G1 X231.043 Y173.187 E0.0365
G1 X231.043 Y172.621 E0.0219
G1 X231.710 Y173.288 E0.0365
G1 X231.710 Y172.722 E0.0219
G1 X231.043 Y172.055 E0.0365
G1 X231.043 Y171.490 E0.0219
G1 X231.710 Y172.156 E0.0365
G1 X231.710 Y171.591 E0.0219
G1 X231.044 Y170.924 E0.0365
G1 X231.044 Y170.358 E0.0219
G1 X231.710 Y171.025 E0.0365
G1 X231.710 Y170.459 E0.0219
G1 X231.044 Y169.793 E0.0365
G1 X231.044 Y169.227 E0.0219
G1 X231.710 Y169.894 E0.0365
G1 X231.710 Y169.328 E0.0219
G1 X231.044 Y168.661 E0.0365
G1 X231.044 Y168.096 E0.0219
G1 X231.710 Y168.762 E0.0365
G1 X231.710 Y168.196 E0.0219
G1 X231.044 Y167.530 E0.0365
G1 X231.044 Y166.964 E0.0219
G1 X231.710 Y167.631 E0.0365
G1 X231.710 Y167.065 E0.0219
G1 X231.044 Y166.399 E0.0365
G1 X231.044 Y165.833 E0.0219
G1 X231.710 Y166.499 E0.0365
G1 X231.710 Y165.934 E0.0219
G1 X231.044 Y165.268 E0.0365
G1 X231.044 Y164.702 E0.0219
G1 X231.710 Y165.368 E0.0365
G1 X231.710 Y164.802 E0.0219
G1 X231.044 Y164.136 E0.0365
G1 X231.044 Y163.571 E0.0219
G1 X231.710 Y164.237 E0.0365
G1 X231.710 Y163.671 E0.0219
G1 X231.044 Y163.005 E0.0365
G1 X231.044 Y162.439 E0.0219
G1 X231.710 Y163.105 E0.0365
G1 X231.710 Y162.540 E0.0219
G1 X231.044 Y161.874 E0.0365
G1 X231.044 Y161.308 E0.0219
G1 X231.710 Y161.974 E0.0365
G1 X231.710 Y161.408 E0.0219
G1 X231.044 Y160.742 E0.0365
G1 X231.044 Y160.177 E0.0219
G1 X231.710 Y160.843 E0.0365
G1 X231.710 Y160.277 E0.0219
G1 X231.044 Y159.611 E0.0365
G1 X231.044 Y159.045 E0.0219
G1 X231.710 Y159.711 E0.0365
G1 X231.710 Y159.146 E0.0219
G1 X231.044 Y158.480 E0.0365
G1 X231.044 Y157.948 E0.0206
G1 X231.078 Y157.948 E0.0013
G1 X231.710 Y158.580 E0.0346
G1 X231.710 Y158.014 E0.0219
G1 X231.644 Y157.948 E0.0036
; feature solid layer
; tool H0.240 W0.800
G1 X230.409 Y148.794 F18000
G1 X230.710 Y149.095 E0.0330 F972
G1 X230.710 Y150.226 E0.0876
G1 X229.278 Y148.794 E0.1568
G1 X228.146 Y148.794 E0.0876
G1 X230.710 Y151.357 E0.2807
G1 X230.710 Y152.489 E0.0876
G1 X227.015 Y148.794 E0.4046
G1 X225.884 Y148.794 E0.0876
G1 X230.710 Y153.620 E0.5285
G1 X230.710 Y154.751 E0.0876
G1 X224.752 Y148.794 E0.6524
G1 X223.621 Y148.794 E0.0876
G1 X230.710 Y155.883 E0.7763
G1 X230.710 Y156.860 E0.0757
G1 X230.556 Y156.860 E0.0119
G1 X222.490 Y148.794 E0.8833
G1 X221.358 Y148.794 E0.0876
G1 X229.425 Y156.860 E0.8833
G1 X228.293 Y156.860 E0.0876
G1 X220.227 Y148.794 E0.8833
G1 X219.095 Y148.794 E0.0876
G1 X227.162 Y156.860 E0.8833
G1 X226.030 Y156.860 E0.0876
G1 X217.964 Y148.794 E0.8833
G1 X216.833 Y148.794 E0.0876
G1 X224.899 Y156.860 E0.8833
G1 X223.768 Y156.860 E0.0876
G1 X215.701 Y148.794 E0.8833
G1 X214.570 Y148.794 E0.0876
G1 X222.636 Y156.860 E0.8833
G1 X221.505 Y156.860 E0.0876
G1 X213.439 Y148.794 E0.8833
G1 X212.307 Y148.794 E0.0876
G1 X220.374 Y156.860 E0.8833
G1 X219.242 Y156.860 E0.0876
G1 X211.176 Y148.794 E0.8833
G1 X210.044 Y148.794 E0.0876
G1 X218.111 Y156.860 E0.8833
G1 X216.980 Y156.860 E0.0876
G1 X208.913 Y148.794 E0.8833
G1 X207.782 Y148.794 E0.0876
G1 X215.848 Y156.860 E0.8833
G1 X214.717 Y156.860 E0.0876
G1 X206.650 Y148.794 E0.8833
G1 X205.519 Y148.794 E0.0876
G1 X213.585 Y156.860 E0.8833
G1 X212.454 Y156.860 E0.0876
G1 X204.388 Y148.794 E0.8833
G1 X203.256 Y148.794 E0.0876
G1 X211.323 Y156.860 E0.8833
G1 X210.191 Y156.860 E0.0876
G1 X202.125 Y148.794 E0.8833
G1 X200.994 Y148.794 E0.0876
G1 X209.060 Y156.860 E0.8833
G1 X207.929 Y156.860 E0.0876
G1 X199.862 Y148.794 E0.8833
G1 X198.731 Y148.794 E0.0876
G1 X206.797 Y156.860 E0.8833
G1 X205.666 Y156.860 E0.0876
G1 X197.599 Y148.794 E0.8833
G1 X196.468 Y148.794 E0.0876
G1 X204.534 Y156.860 E0.8833
G1 X203.403 Y156.860 E0.0876
G1 X195.337 Y148.794 E0.8833
G1 X194.205 Y148.794 E0.0876
G1 X202.272 Y156.860 E0.8833
